; generated by PrusaSlicer 2.9.4 on 2026-03-01 at 19:54:42 UTC


; printer_model = COREONE
; filament_type = FLEX
; filament_abrasive = 0
; nozzle_diameter = 0.6
; nozzle_high_flow = 0
; bed_temperature = 80
; brim_width = 0
; fill_density = 20%
; layer_height = 0.32
; temperature = 270
; ironing = 0
; support_material = 1
; extruder_colour = ""
; max_layer_z = 47.88
; objects_info = {"objects":[{"name":"3DBenchy.stl","polygon":[[131.362,94.507],[133.556,94.615],[134.832,94.779],[137.332,95.469],[139.032,96.067],[140.752,96.785],[142.564,97.677],[144.122,98.565],[146.924,100.473],[148.524,101.771],[149.996,103.121],[152.498,105.837],[153.784,107.493],[154.682,108.799],[154.976,109.651],[154.996,110.149],[154.916,110.633],[154.624,111.301],[153.520,112.865],[151.906,114.861],[150.034,116.841],[148.338,118.389],[146.172,120.081],[144.652,121.107],[142.594,122.307],[140.540,123.309],[138.504,124.131],[136.142,124.885],[134.306,125.321],[131.002,125.499],[128.190,125.441],[125.390,125.191],[116.880,123.783],[110.657,122.850],[103.806,121.967],[96.826,121.221],[95.978,120.909],[95.406,120.371],[95.126,119.849],[95.000,119.207],[95.000,100.815],[95.072,100.323],[95.222,99.931],[95.482,99.531],[95.886,99.153],[96.310,98.919],[96.856,98.775],[103.376,98.083],[110.408,97.185],[116.233,96.321],[125.054,94.853],[128.070,94.565]]}]}
; filament used [mm] = 2706.62
; filament used [g] = 7.49
; filament cost = 0.34
; filament used [cm3] = 6.51
; total filament used for wipe tower [g] = 0.00
; estimated printing time (normal mode) = 31m 45s
; estimated printing time (silent mode) = 34m 5s

;
;

;
;

;
;

;
;

M73 P0 R31
M73 Q0 S34
M201 X10000 Y10000 Z400 E5000
M203 X350 Y350 Z12 E100
M204 P7000 R2500 T7000
M205 X10.00 Y10.00 Z2.00 E10.00
M205 S0 T0
M486 S0
M486 A3DBenchy.stl
M486 S-1
;TYPE:Custom
M17
M862.1 P0.6 A0 F0
M862.3 P "COREONE"
M862.5 P2
M862.6 P"Input shaper"
M115 U6.3.4+10511
; PID for Copper Block
M301 P24.87 I2.06 D75.12
M555 X99.1274 Y97.9009 W38.9905 H20.1982
G90
M83
M870 O
M140 S80
M109 R210
M84 E
G28
M141 S30
G0 Z40 F10000
M104 T0 S150
M190 R80
M107
M109 R210
M302 S155
G1 E-4 F2400
M84 E
M117 Wiping Nozzle
G0 X249 Y-17 Z5 F5000
G0 X211 Y-19 Z4 F5000
M73 Q0 S33
G0 X211 Y-17 Z4 F5000
G0 X249 Y-19 Z4 F5000
G0 X211 Y-17 Z4 F5000
G0 X211 Y-19 Z4 F5000
G0 X249 Y-17 Z4 F5000
G0 X249 Y-17 Z4 F5000
G0 X211 Y-19 Z4 F5000
G0 X211 Y-17 Z4 F5000
G0 X249 Y-18 Z4 F5000
G0 X211 Y-19 Z4 F5000
G0 X211 Y-19 Z4 F5000
G0 X249 Y-17 Z5 F5000
;G29 P9 X208 Y-2.5 W32 H4
; MBL
M84 E
G29 P1
G29 P1 X150 Y0 W100 H20 C
G29 P3.2
G29 P3.13
G29 A
; prepare for purge
M104 S270
G0 X186 Y-2.5 Z15 F4800
M109 S270
G92 E0
M569 S0 E
; Extrude purge line
G92 E0
M118 A1 filmon:reset
M118 A1 filmon:enable
G1 E4 F2400
G0 E5 X186 Z0.2 F500
G0 X176 E4 F500
G0 X166 E4 F650
G0 X156 E4 F800
G0 X153 Z0.05 F8000
G0 X150 Z0.2 F8000
G92 E0
M221 S100
G21
G90
M83
M900 K0
M142 S36
M107
;LAYER_CHANGE
;Z:0.2
;HEIGHT:0.2
M486 S0
G1 X123.158 Y112.651 F21000
G1 Z.2 F720
M204 P500
;TYPE:External perimeter
;WIDTH:0.881916
G1 F2700
G1 X123.203 Y112.406 E.00956
M204 P3000
M204 T7000
G1 X120.466 Y111.994 F21000
M204 P500
;WIDTH:0.708358
G1 F2700
G1 X120.666 Y111.594 E.01361
M204 P3000
M204 T250
G1 X122.39 Y111.126 F21000
M204 T7000
M204 P500
;WIDTH:0.679999
G1 F2700
G1 X122.673 Y111.302 E.00971
G1 X122.774 Y111.418 E.00448
G1 X123.024 Y111.908 E.01603
;WIDTH:0.727458
G1 X123.069 Y112.032 E.00413
;WIDTH:0.774917
G1 X123.114 Y112.157 E.00445
;WIDTH:0.822376
G1 X123.158 Y112.281 E.00469
;WIDTH:0.869834
G1 X123.203 Y112.406 E.00502
G1 X123.29 Y112.282 E.00573
;WIDTH:0.822376
G1 X123.376 Y112.159 E.00535
;WIDTH:0.774917
G1 X123.463 Y112.036 E.00504
;WIDTH:0.727458
G1 X123.549 Y111.913 E.0047
;WIDTH:0.679999
G1 X123.668 Y111.675 E.00775
G3 X124.037 Y110.761 I2.917 J.646 E.02885
G3 X123.171 Y109.191 I5.993 J-4.325 E.05237
G1 X123.136 Y108.784 E.0119
G1 X123.243 Y108.453 E.01014
G3 X123.785 Y108.014 I1.015 J.699 E.0206
G1 X124.345 Y108.032 E.01632
G1 X124.717 Y108.227 E.01224
G3 X124.811 Y108.531 I-.34 J.273 E.00949
G1 X125.119 Y109.005 E.01647
G1 X125.162 Y109.016 E.00129
G1 X125.279 Y108.931 E.00421
G1 X125.483 Y108.595 E.01145
G2 X125.676 Y108.263 I-.832 J-.704 E.01125
G1 X126.123 Y108.081 E.01406
G1 X126.508 Y108.147 E.01138
G1 X126.79 Y108.427 E.01158
G1 X126.856 Y108.638 E.00644
;WIDTH:0.63581
G1 X126.922 Y108.849 E.00599
G1 X126.886 Y109.245 E.01078
;WIDTH:0.679999
G3 X126.366 Y110.574 I-7.549 J-2.182 E.04164
G1 X126.342 Y110.748 E.00512
G1 X126.576 Y111.178 E.01426
;WIDTH:0.725506
G1 X126.691 Y111.327 E.00588
;WIDTH:0.771013
G1 X126.806 Y111.475 E.00624
;WIDTH:0.81652
G1 X126.922 Y111.624 E.00668
;WIDTH:0.862027
G1 X127.037 Y111.773 E.00705
;WIDTH:0.907534
G1 X127.153 Y111.921 E.00744
G1 X127.322 Y112.388 E.01964
;WIDTH:0.900665
G1 X127.295 Y112.498 E.00444
;WIDTH:0.856532
G1 X127.268 Y112.608 E.00421
;WIDTH:0.812399
G1 X127.24 Y112.718 E.00399
;WIDTH:0.768266
G1 X127.213 Y112.828 E.00376
;WIDTH:0.724133
G1 X127.185 Y112.938 E.00354
;WIDTH:0.679999
G1 X127.069 Y113.188 E.00803
;WIDTH:0.728497
G1 X127.006 Y113.284 E.0036
;WIDTH:0.776995
G1 X126.944 Y113.38 E.00384
;WIDTH:0.825492
G3 X126.705 Y113.555 I-.3 J-.159 E.01097
;WIDTH:0.799263
G1 X126.528 Y113.633 E.00669
;WIDTH:0.773034
G1 X126.277 Y113.594 E.00848
;WIDTH:0.726517
G1 X126.026 Y113.554 E.00795
;WIDTH:0.679999
G1 X125.682 Y113.401 E.01097
G1 X125.578 Y113.231 E.00581
G2 X125.218 Y112.511 I-2.493 J.797 E.02355
G1 X125.044 Y112.464 E.00525
G3 X124.491 Y113.339 I-6.4 J-3.437 E.03018
G1 X124.087 Y113.501 E.01268
G3 X123.597 Y113.275 I.158 J-.989 E.01592
;WIDTH:0.727034
G1 X123.431 Y113.107 E.00739
;WIDTH:0.774068
G1 X123.265 Y112.938 E.00792
;WIDTH:0.810018
G1 X123.229 Y112.842 E.0036
;WIDTH:0.845967
G1 X123.194 Y112.746 E.00375
;WIDTH:0.881916
G1 X123.158 Y112.651 E.0039
G1 X123.111 Y112.751 E.00424
;WIDTH:0.843638
G1 X123.064 Y112.851 E.00405
;WIDTH:0.80536
G1 X123.016 Y112.951 E.00387
;WIDTH:0.767082
G1 X122.848 Y113.144 E.00847
;WIDTH:0.723541
G1 X122.681 Y113.337 E.00794
;WIDTH:0.679999
G1 X122.426 Y113.619 E.01108
G1 X122.034 Y113.817 E.0128
G1 X121.479 Y113.85 E.0162
G3 X120.848 Y113.479 I.488 J-1.554 E.02151
G1 X120.564 Y112.953 E.01742
;WIDTH:0.687082
G1 X120.428 Y112.424 E.01609
;WIDTH:0.706525
G1 X120.448 Y112.027 E.01206
G1 X120.123 Y112.423 E.01555
;WIDTH:0.679999
G1 X119.477 Y113.015 E.02553
G3 X118.695 Y113.349 I-1.365 J-2.111 E.02489
G1 X117.878 Y113.424 E.0239
G2 X116.541 Y113.453 I-.424 J11.15 E.03899
G1 X116.151 Y113.372 E.01161
G3 X115.738 Y112.934 I.622 J-1 E.01774
;WIDTH:0.702401
G1 X115.627 Y112.394 E.01663
G1 X115.699 Y111.833 E.01706
;WIDTH:0.687362
G1 X115.73 Y111.115 E.02118
;WIDTH:0.688313
G1 X115.676 Y110.462 E.01934
;WIDTH:0.717337
G1 X115.639 Y110.197 E.00825
;WIDTH:0.746361
G1 X115.601 Y109.931 E.00864
;WIDTH:0.79501
G1 X115.564 Y109.774 E.00555
;WIDTH:0.843658
G1 X115.527 Y109.616 E.00594
;WIDTH:0.892306
G3 X115.512 Y109.321 I.437 J-.17 E.01167
;WIDTH:0.852625
G1 X115.534 Y109.183 E.00517
;WIDTH:0.812944
G1 X115.556 Y109.046 E.00489
;WIDTH:0.773263
G1 X115.578 Y108.908 E.00467
;WIDTH:0.733582
G1 X115.596 Y108.612 E.00937
;WIDTH:0.707933
G1 X115.614 Y108.315 E.00905
;WIDTH:0.688599
G1 X115.585 Y107.658 E.01942
;WIDTH:0.704865
G1 X115.556 Y107.389 E.00819
G1 X115.701 Y106.976 E.01325
;WIDTH:0.679999
G1 X115.811 Y106.837 E.00516
G1 X116.226 Y106.578 E.01425
G1 X116.737 Y106.495 E.01508
G1 X117.971 Y106.511 E.03596
G3 X119.1 Y106.649 I-.202 J6.325 E.03318
G3 X120.033 Y107.108 I-.776 J2.754 E.03046
G3 X120.709 Y107.937 I-2.529 J2.756 E.03127
G3 X121.093 Y109.089 I-3.748 J1.887 E.0355
G3 X121.041 Y110.199 I-3.463 J.395 E.03251
G1 X120.939 Y110.489 E.00896
;WIDTH:0.680747
G1 X120.824 Y111.103 E.01822
;WIDTH:0.689228
G1 X120.666 Y111.594 E.01525
G1 X121.042 Y111.248 E.0151
;WIDTH:0.681072
G1 X121.182 Y111.166 E.00474
;WIDTH:0.679999
G1 X121.794 Y110.99 E.01855
G1 X122.226 Y111.025 E.01263
G1 X122.313 Y111.079 E.00298
M204 P3000
G1 X122.769 Y111.47 F21000
G1 X111.274 Y108.419
M204 P500
G1 F2700
G1 X110.972 Y108.066 E.01354
G1 X110.958 Y107.929 E.00401
;WIDTH:0.637183
G1 X110.944 Y107.793 E.00372
;WIDTH:0.594367
G1 X110.929 Y107.656 E.00348
;WIDTH:0.584296
G1 X110.945 Y107.525 E.00327
;WIDTH:0.617041
G1 X110.96 Y107.395 E.00344
;WIDTH:0.64852
G1 X111.14 Y107.118 E.00915
;WIDTH:0.679999
G1 X111.32 Y106.842 E.0096
G3 X112.112 Y106.404 I1.394 J1.586 E.02657
G3 X113.763 Y106.476 I.676 J3.458 E.0486
G1 X114.299 Y106.749 E.01753
G1 X114.692 Y107.154 E.01644
;WIDTH:0.706936
G1 X114.923 Y107.591 E.01501
G1 X114.974 Y108.279 E.02095
;WIDTH:0.730216
G1 X114.896 Y108.813 E.01696
;WIDTH:0.772437
G1 X114.874 Y108.89 E.00267
;WIDTH:0.814657
G1 X114.851 Y108.966 E.0028
;WIDTH:0.856878
G1 X114.829 Y109.042 E.00295
;WIDTH:0.899098
G3 X114.708 Y109.211 I-.25 J-.051 E.00838
;WIDTH:0.899286
G1 X114.49 Y109.497 E.01408
G1 X114.838 Y109.858 E.01964
;WIDTH:0.867129
G1 X114.885 Y110.013 E.00611
;WIDTH:0.824534
G1 X114.932 Y110.168 E.00579
;WIDTH:0.781939
G1 X114.979 Y110.323 E.00547
;WIDTH:0.739344
G1 X115.026 Y110.478 E.00516
;WIDTH:0.696749
G1 X115.086 Y111.102 E.01874
;WIDTH:0.689072
G1 X115.074 Y111.61 E.01502
;WIDTH:0.706452
G1 X114.974 Y112.194 E.01798
G1 X114.801 Y112.56 E.01228
;WIDTH:0.682048
G1 X114.485 Y112.963 E.01497
;WIDTH:0.679999
G1 X114.093 Y113.262 E.01436
G3 X112.749 Y113.596 I-1.322 J-2.449 E.04078
G3 X111.314 Y113.267 I-.078 J-2.953 E.04335
G1 X110.982 Y112.996 E.01249
G3 X110.682 Y112.337 I1.09 J-.893 E.02134
G3 X111.162 Y111.299 I.983 J-.176 E.03548
;WIDTH:0.685824
G1 X111.468 Y111.189 E.00956
;WIDTH:0.697748
G3 X112.204 Y111.28 I.156 J1.769 E.02237
;WIDTH:0.689147
G1 X112.561 Y111.478 E.01206
;WIDTH:0.666842
G1 X112.808 Y111.631 E.00829
G2 X113.069 Y111.424 I-.09 J-.382 E.00982
G2 X112.957 Y110.999 I-.494 J-.097 E.01298
;WIDTH:0.687239
G2 X112.275 Y110.631 I-1.093 J1.21 E.02306
;WIDTH:0.693281
G1 X111.857 Y110.512 E.01293
G1 X111.549 Y110.223 E.01256
;WIDTH:0.679999
G1 X111.444 Y109.913 E.00954
G1 X111.498 Y109.537 E.01107
G1 X111.82 Y109.075 E.01641
;WIDTH:0.652274
G1 X111.986 Y108.994 E.00515
;WIDTH:0.611285
G1 X112.152 Y108.913 E.0048
M73 P1 R31
;WIDTH:0.60217
G1 X112.391 Y108.847 E.00634
;WIDTH:0.634044
G1 X112.63 Y108.781 E.0067
G1 X112.779 Y108.583 E.0067
G2 X112.865 Y108.302 I-.239 J-.226 E.00824
G2 X112.46 Y108.196 I-.389 J.658 E.01146
G2 X112.172 Y108.319 I.088 J.606 E.00856
;WIDTH:0.60042
G1 X111.947 Y108.439 E.0065
;WIDTH:0.609535
G1 X111.758 Y108.488 E.00506
;WIDTH:0.652274
G1 X111.568 Y108.538 E.00548
;WIDTH:0.679999
G1 X111.351 Y108.46 E.00672
M204 P3000
G1 X110.993 Y107.978 F21000
M204 T250
G1 X110.42 Y107.513
M204 T7000
M204 P500
;WIDTH:0.617041
G1 F2700
G1 X110.373 Y107.898 E.01018
;WIDTH:0.6472
G1 X110.338 Y107.972 E.00226
;WIDTH:0.679999
G1 X110.304 Y108.047 E.0024
G1 X109.851 Y108.394 E.01663
G3 X108.764 Y108.537 I-.992 J-3.332 E.03208
M73 Q1 S33
G1 X108.772 Y112.453 E.11409
G1 X108.635 Y112.92 E.01418
G3 X108.137 Y113.374 I-1.008 J-.608 E.01991
G3 X107.417 Y113.409 I-.428 J-1.383 E.02123
G3 X106.861 Y113.016 I.335 J-1.064 E.02016
G1 X106.731 Y112.633 E.01178
G1 X106.76 Y111.923 E.0207
G1 X106.742 Y109.149 E.08082
G1 X106.767 Y108.536 E.01787
G1 X106.589 Y108.5 E.00529
G1 X105.977 Y108.513 E.01783
G1 X105.628 Y108.411 E.01059
G1 X105.297 Y108.146 E.01235
;WIDTH:0.666981
G1 X105.225 Y107.987 E.00498
;WIDTH:0.623644
G1 X105.154 Y107.828 E.00462
;WIDTH:0.642858
G1 X105.125 Y107.553 E.00759
;WIDTH:0.670999
G1 X105.097 Y107.278 E.00794
;WIDTH:0.679999
G1 X105.314 Y106.819 E.01479
G3 X105.663 Y106.562 I.557 J.393 E.01285
G3 X106.99 Y106.505 I1.038 J8.687 E.03874
G3 X109.817 Y106.574 I.722 J28.342 E.08242
G1 X110.015 Y106.661 E.0063
G1 X110.366 Y107.029 E.01482
G1 X110.406 Y107.166 E.00416
;WIDTH:0.64852
G1 X110.446 Y107.303 E.00395
;WIDTH:0.617041
G1 X110.431 Y107.423 E.00318
M204 P3000
G1 X110.284 Y108.005 F21000
G1 X104.122 Y108.807
M204 P500
;WIDTH:0.679999
G1 F2700
G3 X103.922 Y108.869 I-.361 J-.813 E.00611
G1 X103.39 Y108.817 E.01557
G2 X102.529 Y108.414 I-1.872 J2.879 E.02779
G1 X102.127 Y108.52 E.01211
G1 X101.942 Y108.65 E.00659
G2 X101.66 Y109.342 I1.609 J1.06 E.02191
G2 X101.665 Y110.675 I4.414 J.648 E.03898
G1 X101.79 Y111.022 E.01075
G1 X101.941 Y111.278 E.00866
G1 X102.29 Y111.48 E.01175
G1 X102.681 Y111.516 E.01144
G2 X103.167 Y111.214 I-.127 J-.746 E.0171
G1 X103.594 Y111.017 E.0137
G1 X104.091 Y111.036 E.01449
G1 X104.511 Y111.242 E.01363
G1 X104.793 Y111.565 E.01249
G3 X104.897 Y112.132 I-1.297 J.531 E.01692
G1 X104.696 Y112.599 E.01481
G1 X104.377 Y112.986 E.01461
G3 X103.613 Y113.44 I-1.759 J-2.092 E.02601
G1 X102.822 Y113.588 E.02345
G3 X101.599 Y113.446 I-.155 J-3.983 E.03602
G1 X100.98 Y113.15 E.01999
G1 X100.548 Y112.778 E.01661
G3 X100.015 Y111.694 I3.255 J-2.272 E.03533
G1 X99.916 Y111.414 E.00865
;WIDTH:0.673599
G1 X99.899 Y111.231 E.0053
;WIDTH:0.625309
G1 X99.881 Y111.048 E.0049
;WIDTH:0.577019
G1 X99.864 Y110.865 E.00449
;WIDTH:0.528729
G1 X99.82 Y110.19 E.01503
;WIDTH:0.498407
G1 X99.833 Y109.455 E.01531
;WIDTH:0.548395
G1 X99.905 Y108.8 E.01523
;WIDTH:0.58768
G1 X99.931 Y108.643 E.00396
;WIDTH:0.626965
G1 X99.957 Y108.485 E.00428
;WIDTH:0.66625
G1 X99.983 Y108.328 E.00454
;WIDTH:0.679999
G3 X100.498 Y107.208 I4.07 J1.196 E.03604
G3 X101.395 Y106.558 I1.995 J1.806 E.03251
G3 X103.503 Y106.469 I1.187 J3.098 E.06256
G1 X103.953 Y106.71 E.01487
G3 X104.544 Y107.464 I-1.668 J1.916 E.02808
;WIDTH:0.643267
G1 X104.587 Y107.666 E.00567
;WIDTH:0.611787
G1 X104.631 Y107.868 E.00538
;WIDTH:0.623644
G1 X104.622 Y108.026 E.0042
;WIDTH:0.666981
G1 X104.612 Y108.184 E.00452
;WIDTH:0.679999
G1 X104.384 Y108.63 E.01459
G3 X104.203 Y108.767 I-.623 J-.636 E.00663
M204 P3000
G1 X103.605 Y108.824 F21000
G1 X135.732 Y113.082
M204 P500
;WIDTH:0.681046
G1 F2700
G1 X135.604 Y113.223 E.00556
M204 P3000
G1 X125.073 Y113.631 F21000
M204 P500
;TYPE:Perimeter
;WIDTH:0.679999
G1 F2700
G2 X125.429 Y113.996 I.905 J-.528 E.01501
G1 X125.786 Y114.151 E.01134
;WIDTH:0.681247
G1 X126.31 Y114.233 E.01548
G1 X126.236 Y114.419 E.00584
;WIDTH:0.679999
G1 X126.139 Y114.715 E.00908
G2 X126.209 Y115.607 I2.46 J.255 E.02621
G1 X126.486 Y116.139 E.01748
G1 X126.854 Y116.502 E.01506
G1 X127.364 Y116.715 E.0161
G3 X124.365 Y116.904 I-2.313 J-12.794 E.08775
G1 X101.022 Y115.487 E.68136
G1 X100.611 Y115.407 E.0122
G1 X100.439 Y115.271 E.00639
G1 X100.316 Y114.932 E.01051
G1 X100.302 Y113.416 E.04417
G1 X100.698 Y113.722 E.01458
G1 X101.459 Y114.067 E.02434
G2 X103.892 Y114.013 I1.127 J-4.033 E.07194
G2 X104.854 Y113.414 I-1.39 J-3.308 E.03316
G1 X105.232 Y112.943 E.0176
G1 X105.45 Y112.458 E.01549
;WIDTH:0.667731
G1 X105.525 Y112.102 E.0104
;WIDTH:0.68138
G1 X105.485 Y111.615 E.01427
G1 X105.3 Y111.179 E.01383
;WIDTH:0.679999
G2 X104.454 Y110.499 I-1.512 J1.013 E.03211
;WIDTH:0.721408
G1 X104.314 Y110.441 E.0047
;WIDTH:0.762816
G1 X104.175 Y110.384 E.00495
;WIDTH:0.804224
G1 X104.035 Y110.327 E.00526
;WIDTH:0.805066
G1 X103.655 Y110.316 E.01325
;WIDTH:0.84338
G1 X103.523 Y110.328 E.00485
;WIDTH:0.881694
G1 X103.39 Y110.339 E.00512
;WIDTH:0.920008
G1 X103.258 Y110.351 E.00532
;WIDTH:0.958322
G1 X103.125 Y110.362 E.00559
;WIDTH:0.979928
G2 X102.527 Y110.721 I.853 J2.101 E.03001
G1 X102.441 Y110.506 E.00992
G3 X102.443 Y109.42 I3.565 J-.536 E.04671
G1 X102.508 Y109.23 E.00861
G1 X103.042 Y109.523 E.0261
G1 X103.116 Y109.53 E.00319
;WIDTH:0.943061
G1 X103.191 Y109.537 E.0031
;WIDTH:0.906194
G1 X103.265 Y109.544 E.00293
;WIDTH:0.869326
G1 X103.591 Y109.555 E.01233
;WIDTH:0.83507
G1 X103.917 Y109.567 E.01182
;WIDTH:0.800813
G1 X104.079 Y109.527 E.00578
;WIDTH:0.767317
G1 X104.241 Y109.488 E.00552
;WIDTH:0.733821
G1 X104.519 Y109.306 E.0105
;WIDTH:0.70691
G1 X104.797 Y109.125 E.01007
;WIDTH:0.679999
G1 X105.032 Y108.771 E.01238
G2 X106.105 Y109.153 I1.057 J-1.27 E.03388
G1 X106.116 Y110.9 E.0509
;WIDTH:0.68138
G1 X106.116 Y112.342 E.0421
;WIDTH:0.679999
G1 X106.122 Y112.876 E.01556
G1 X106.348 Y113.404 E.01673
G2 X106.965 Y113.916 I1.619 J-1.323 E.02351
G2 X107.807 Y114.08 I.84 J-2.069 E.02515
G2 X108.883 Y113.64 I-.122 J-1.836 E.03446
G1 X109.179 Y113.252 E.01422
;WIDTH:0.683875
